public/static/img/bottom/zichan1.svg

<svg xmlns="http://www.w3.org/2000/svg" width="28" height="28" viewBox="0 0 28 28" fill="none">
  <g clip-path="url(#clip0_54_1916)">
    <g filter="url(#filter0_d_54_1916)">
      <path fill-rule="evenodd" clip-rule="evenodd" d="M19.33 4.2H8C5.90132 4.2 4.2 5.90132 4.2 7.99999V19.33C4.2 21.4287 5.90132 23.13 7.99999 23.13H19.33C21.4287 23.13 23.13 21.4287 23.13 19.33V8C23.13 5.90132 21.4287 4.2 19.33 4.2ZM8 2C4.68629 2 2 4.68629 2 7.99999V19.33C2 22.6437 4.68629 25.33 7.99999 25.33H19.33C22.6437 25.33 25.33 22.6437 25.33 19.33V8C25.33 4.68629 22.6437 2 19.33 2H8Z" fill="#888888"/>
    </g>
    <path d="M14.0057 8.22852L19.7804 14.0032L14.0057 19.7779L8.23102 14.0032L14.0057 8.22852ZM14.0057 11.5283L11.5308 14.0032L14.0057 16.4781L16.4806 14.0032L14.0057 11.5283Z" fill="#888888"/>
  </g>
  <defs>
    <filter id="filter0_d_54_1916" x="-2" y="2" width="31.33" height="31.3301" filterUnits="userSpaceOnUse" color-interpolation-filters="sRGB">
      <feFlood flood-opacity="0" result="BackgroundImageFix"/>
      <feColorMatrix in="SourceAlpha" type="matrix" values="0 0 0 0 0 0 0 0 0 0 0 0 0 0 0 0 0 0 127 0" result="hardAlpha"/>
      <feOffset dy="4"/>
      <feGaussianBlur stdDeviation="2"/>
      <feComposite in2="hardAlpha" operator="out"/>
      <feColorMatrix type="matrix" values="0 0 0 0 0 0 0 0 0 0 0 0 0 0 0 0 0 0 0.25 0"/>
      <feBlend mode="normal" in2="BackgroundImageFix" result="effect1_dropShadow_54_1916"/>
      <feBlend mode="normal" in="SourceGraphic" in2="effect1_dropShadow_54_1916" result="shape"/>
    </filter>
    <clipPath id="clip0_54_1916">
      <rect width="28" height="28" fill="white"/>
    </clipPath>
  </defs>
</svg>

<svg xmlns="http://www.w3.org/2000/svg" width="28" height="28" fill="none"><g clip-path="url(#a)"><g filter="url(#b)"><path fill-rule="evenodd" clip-rule="evenodd" d="M19.33 4.2H8A3.8 3.8 0 0 0 4.2 8v11.33a3.8 3.8 0 0 0 3.8 3.8h11.33a3.8 3.8 0 0 0 3.8-3.8V8a3.8 3.8 0 0 0-3.8-3.8ZM8 2a6 6 0 0 0-6 6v11.33a6 6 0 0 0 6 6h11.33a6 6 0 0 0 6-6V8a6 6 0 0 0-6-6H8Z" fill="#888"/></g><path d="m14.006 8.229 5.774 5.774-5.774 5.775-5.775-5.775 5.775-5.774Zm0 3.3-2.475 2.474 2.475 2.475 2.475-2.475-2.475-2.475Z" fill="#888"/></g><defs><clipPath id="a"><path fill="#fff" d="M0 0h28v28H0z"/></clipPath><filter id="b" x="-2" y="2" width="31.33" height="31.33" filterUnits="userSpaceOnUse" color-interpolation-filters="sRGB"><feFlood flood-opacity="0" result="BackgroundImageFix"/><feColorMatrix in="SourceAlpha" values="0 0 0 0 0 0 0 0 0 0 0 0 0 0 0 0 0 0 127 0" result="hardAlpha"/><feOffset dy="4"/><feGaussianBlur stdDeviation="2"/><feComposite in2="hardAlpha" operator="out"/><feColorMatrix values="0 0 0 0 0 0 0 0 0 0 0 0 0 0 0 0 0 0 0.25 0"/><feBlend in2="BackgroundImageFix" result="effect1_dropShadow_54_1916"/><feBlend in="SourceGraphic" in2="effect1_dropShadow_54_1916" result="shape"/></filter></defs></svg>
